src/assets/timesheet.svg

<svg id="fi_2669444" enable-background="new 0 0 512 512" height="512" viewBox="0 0 512 512" width="512" xmlns="http://www.w3.org/2000/svg"><g><path d="m450 85c0-30.327-24.673-55-55-55h-11v45c0 8.284-6.716 15-15 15s-15-6.716-15-15v-45h-66v45c0 8.284-6.716 15-15 15s-15-6.716-15-15v-45h-66v45c0 8.284-6.716 15-15 15s-15-6.716-15-15v-45h-66v45c0 8.284-6.716 15-15 15s-15-6.716-15-15v-45h-11c-30.327 0-55 24.673-55 55v45h450z"></path><path d="m96 15c0-8.284-6.716-15-15-15s-15 6.716-15 15v15h30z"></path><path d="m384 15c0-8.284-6.716-15-15-15s-15 6.716-15 15v15h30z"></path><path d="m288 15c0-8.284-6.716-15-15-15s-15 6.716-15 15v15h30z"></path><path d="m192 15c0-8.284-6.716-15-15-15s-15 6.716-15 15v15h30z"></path><path d="m402 262c16.854 0 33.022 2.995 48 8.478v-110.478h-450v225c0 24.813 20.187 45 45 45h219.815c-1.844-9.05-2.815-18.414-2.815-28 0-77.196 62.804-140 140-140zm-56-49.5h25c8.284 0 15 6.716 15 15s-6.716 15-15 15h-25c-8.284 0-15-6.716-15-15s6.716-15 15-15zm-89 0h25c8.284 0 15 6.716 15 15s-6.716 15-15 15h-25c-8.284 0-15-6.716-15-15s6.716-15 15-15zm-153 165h-25c-8.284 0-15-6.716-15-15s6.716-15 15-15h25c8.284 0 15 6.716 15 15s-6.716 15-15 15zm0-67.5h-25c-8.284 0-15-6.716-15-15s6.716-15 15-15h25c8.284 0 15 6.716 15 15s-6.716 15-15 15zm89 67.5h-25c-8.284 0-15-6.716-15-15s6.716-15 15-15h25c8.284 0 15 6.716 15 15s-6.716 15-15 15zm0-67.5h-25c-8.284 0-15-6.716-15-15s6.716-15 15-15h25c8.284 0 15 6.716 15 15s-6.716 15-15 15zm0-67.5h-25c-8.284 0-15-6.716-15-15s6.716-15 15-15h25c8.284 0 15 6.716 15 15s-6.716 15-15 15zm49 52.5c0-8.284 6.716-15 15-15h25c8.284 0 15 6.716 15 15s-6.716 15-15 15h-25c-8.284 0-15-6.716-15-15z"></path><path d="m402 292c-60.654 0-110 49.346-110 110s49.346 110 110 110 110-49.346 110-110-49.346-110-110-110zm50 125h-50c-8.284 0-15-6.716-15-15v-50c0-8.284 6.716-15 15-15s15 6.716 15 15v35h35c8.284 0 15 6.716 15 15s-6.716 15-15 15z"></path></g></svg>

<svg width="512" height="512" viewBox="0 0 512 512" fill="none" xmlns="http://www.w3.org/2000/svg">
<g clip-path="url(#clip0_250_25)">
<path d="M450 85C450 54.673 425.327 30 395 30H384V75C384 83.284 377.284 90 369 90C360.716 90 354 83.284 354 75V30H288V75C288 83.284 281.284 90 273 90C264.716 90 258 83.284 258 75V30H192V75C192 83.284 185.284 90 177 90C168.716 90 162 83.284 162 75V30H96V75C96 83.284 89.284 90 81 90C72.716 90 66 83.284 66 75V30H55C24.673 30 0 54.673 0 85V130H450V85Z" fill="#757575"/>
<path d="M96 15C96 6.716 89.284 0 81 0C72.716 0 66 6.716 66 15V30H96V15Z" fill="#757575"/>
<path d="M384 15C384 6.716 377.284 0 369 0C360.716 0 354 6.716 354 15V30H384V15Z" fill="#757575"/>
<path d="M288 15C288 6.716 281.284 0 273 0C264.716 0 258 6.716 258 15V30H288V15Z" fill="#757575"/>
<path d="M192 15C192 6.716 185.284 0 177 0C168.716 0 162 6.716 162 15V30H192V15Z" fill="#757575"/>
<path d="M402 262C418.854 262 435.022 264.995 450 270.478V160H0V385C0 409.813 20.187 430 45 430H264.815C262.971 420.95 262 411.586 262 402C262 324.804 324.804 262 402 262ZM346 212.5H371C379.284 212.5 386 219.216 386 227.5C386 235.784 379.284 242.5 371 242.5H346C337.716 242.5 331 235.784 331 227.5C331 219.216 337.716 212.5 346 212.5ZM257 212.5H282C290.284 212.5 297 219.216 297 227.5C297 235.784 290.284 242.5 282 242.5H257C248.716 242.5 242 235.784 242 227.5C242 219.216 248.716 212.5 257 212.5ZM104 377.5H79C70.716 377.5 64 370.784 64 362.5C64 354.216 70.716 347.5 79 347.5H104C112.284 347.5 119 354.216 119 362.5C119 370.784 112.284 377.5 104 377.5ZM104 310H79C70.716 310 64 303.284 64 295C64 286.716 70.716 280 79 280H104C112.284 280 119 286.716 119 295C119 303.284 112.284 310 104 310ZM193 377.5H168C159.716 377.5 153 370.784 153 362.5C153 354.216 159.716 347.5 168 347.5H193C201.284 347.5 208 354.216 208 362.5C208 370.784 201.284 377.5 193 377.5ZM193 310H168C159.716 310 153 303.284 153 295C153 286.716 159.716 280 168 280H193C201.284 280 208 286.716 208 295C208 303.284 201.284 310 193 310ZM193 242.5H168C159.716 242.5 153 235.784 153 227.5C153 219.216 159.716 212.5 168 212.5H193C201.284 212.5 208 219.216 208 227.5C208 235.784 201.284 242.5 193 242.5ZM242 295C242 286.716 248.716 280 257 280H282C290.284 280 297 286.716 297 295C297 303.284 290.284 310 282 310H257C248.716 310 242 303.284 242 295Z" fill="#757575"/>
<path d="M402 292C341.346 292 292 341.346 292 402C292 462.654 341.346 512 402 512C462.654 512 512 462.654 512 402C512 341.346 462.654 292 402 292ZM452 417H402C393.716 417 387 410.284 387 402V352C387 343.716 393.716 337 402 337C410.284 337 417 343.716 417 352V387H452C460.284 387 467 393.716 467 402C467 410.284 460.284 417 452 417Z" fill="#757575"/>
</g>
<defs>
<clipPath id="clip0_250_25">
<rect width="512" height="512" fill="white"/>
</clipPath>
</defs>
</svg>
